X: 14095
T: Friday Harbor
R: reel
M: 4/4
K: Adorian
A|:BAAG A2 Bd|eddB ~G3A|BAAG B/c/d AB|GEED ~E3 A|
BAAG A2 Bd|eddB GABd|eg~g2 eaae|1 gedB BAAG:|2 gedB BAAA||
eaag ~a2 ga|bage d2 Bd|eg~g2 dgga|bage aged|
eaag ~a2 ga|bage d2 Bd|eg~g2 eaae|gedB BAAG:|

